X:1
T:Carolina Shout
T:Carolina Shout
T:James Price Johnson (1894-1955)
T:1921
T:1921
T:1921
T:1921
T:1921
T:1921
T:1921
T:1921
C:James Price Johnson
Z:1921
%%score { ( 1 4 ) | ( 2 3 ) }
L:1/8
Q:1/4=100
M:2/4
K:G
V:1 treble+8 nm="Piano" snm="Pno."
V:4 treble+8 
V:2 treble 
V:3 treble 
V:1
"^Allegro (with swing)" ^a/ | [dgb]/^a/[dgb]/[Beg]/- [Beg]/f/[Beg]/^g/ | %2
 [Acea]/^g/[Aea]/[EG^ce]/- [EGce]/^d/[EGce]/c/ | [DAd]/[DAd]^c/ [DGd]/c/[D^GBd]/c/ | %4
 [DAd] z{abc'} [dfd'] z/ ^a/ | [Bdgb]/^a/[Bdgb]/^g/ [Acf=a]/g/[Acfa]/f/ | %6
 [GBeg]/f/[GBeg]/[D=FGBd]/ z/ [DFGBd][Be]/ | [c^d]/e/[B=d]/[Ae]/ [^A^c]/e/[Bd]/[^E=c]/ | %8
 z/ [CAc]/ z/ [B,DGB]/ z/ [B,DGB]^a/ | [Bdgb]/^a/[Bdgb]/^g/ [Acf=a]/g/[Acfa]/f/ | %10
 [GBeg]/f/[GBeg]/[DG_Bd]/- [DGBd]/[EGBe][^E^e]/ | [Adf]/[Bdfb][Aa]/ [B^df]/[Bdfb][Aa]/ | %12
 [^GBdf]/b/4f/4[E=GA^ce]/[Aa]/ [=cdf]/[dfad']^a/ | [Bdgb]/^a/[Bdgb]/^g/ [Acf=a]/g/[Acfa]/f/ | %14
 [GBeg]/f/[GBeg]/[D=FGBd]/- [DFGBd]/[DFGBd][Be]/ | [c^d]/e/[B=d]/[Ae]/ [^A^c]/e/[Bd]/[^E=c]/ | %16
 z/ [CAc]/ z/ [B,DGB]/ z/ [A,D=FA]B/4A/4 | %17
 [^G,B,D^G]/E/[G,B,DG]/[EGBe]/- [EGBe]/[Dd]/[CEGc]/[B,B]/ | %18
 [DEAd]/[Cc]/[B,B]/[DEGd]/- [DEGd]/[C_EGc]^A/ | [B,DGB]/[B,^DGB]^A/ [B,^CEGB][A,=C=D=A]/B/ | %20
 x B- B/ x/ x |"^groupings sim." [Bdgb]/^a/[Bdgb]/^g/ [Acf=a]/g/[Acfa]/f/ | %22
 [GBeg]/f/[GBeg]/[D=FGBd]/ z/ [DFGBd][Be]/ | [c^d]/e/[B=d]/[Ae]/ [^A^c]/e/[Bd]/[^E^c]/ | %24
 z/ [CDA=c]/ z/ [B,DGB]/ z/ [B,DGB]^a/ | [Bdgb]/^a/[Bdgb]/^g/ [Acf=a]/g/[Acfa]/f/ | %26
 [GBeg]/f/[GBeg]/[DG_Bd]/ z/ [EGBe][^E^e]/ | [Adf]/[Bdfb][Aa]/ [Bdf]/[Bdfb][Aa]/ | %28
 [G^ceg]/[Aa]/[EGce]/[Aa]/ [df]/[dfad']^a/ | [Bdgb]/^a/[Bdgb]/^g/ [Acf=a]/g/[Acfa]/f/ | %30
 [GBeg]/f/[GBeg]/[D=FGBd]/ z/ [DFGBd][Be]/ | [c^d]/e/[B=d]/[Ae]/ [^A^c]/e/[Bd]/[^E=c]/ | %32
 z/ [CDAc]/ z/ [B,DGB]/- [B,DGB]/B/[A,D=FA]/B/4A/4 | %33
 [^G,B,D^G]/[A,A]/[G,B,EG]/[EGBe]/ z/ [DEGBd]B/ | [Dd]2 [=Fd]/[Ec]/[_EA]/^A/ | %35
 [B,DGB]/^A/[B,DGB]/[B,^CEGB]/- [B,CEGB]/[A,=CD=A]B/ | [G,B,DG][K:treble]D/-[DFAd]/ z/ [G^A^cg]e/ | %37
 [GBd]/G/[dg]/G/ z/ G/[eg]/G/ | z/ G/[dg]/G/ z/ G/[eg]/G/ | z/ e/[dg]/B/ c/[dg]/ z/ e/ | %40
 [G^cg]/.G/[_Bceg]/[FA=c]/- [FAc]/[DFAd]/ z/ [G=Bdg]/- | [GBdg]/ z/ [dg]/G/ z/ G/[eg]/G/ | %42
 z/ G/[dg]/G/ e/[Gdg]/ z/ ^c/ | [F^A]/^G/^^G/A/ ^c/e/[Ac]/e/ | %44
 [Bd]/[ce]/^c/[FA=cd]/- [FAcd]/[FAcd][GBdg]/- | [GBdg]/G/[dg]/G/ z/ G/[eg]/G/ | %46
 z/ G/[dg]/G/ z/ G/[eg]/G/ | z/ (3B/4c/4^c/4d/[=ce]/ d/[^cg]e/ | %48
 [A^ca]/[Begb][A=ca]/- [Aca]/[Bdb]d/ | [GBg]/A/^A/B/ d/[EGBe]B/ | %50
 [DEGd]/=F/^F/[DEGd]/- [DEGd]/[C_EGc]^A/ | [B,DGB]/^A/[B,^DGB]/[B,^CEGB]/- [B,CEGB]/[A,=CF=A]B/ | %52
 [B,DG] z [FAcd]/[_bg'][bg']/- |: [bg']/[_bg']e'/ [=bd'] .[^C^A] | %54
 .[DGB].[^C^A]/[DFB]/- [DFB]/[=CF=A] [_bg']/- | [bg']/[_bg']e'/ [=bd'] .[^C^A] | %56
 .[DGB].[^C^A]/[=CF=A]/- [CFA]/[DFAd] [_bg']/- | [bg']/[_bg']e'/ [=bd'] .F, | %58
 .[^G,F].[^A,F]/[B,E]/ z/ [F,=A,D] [^af']/- | [af']/[ge']d'/- d'/[e^c']f/ | %60
 [db]/^a/[_db]/[c=d=ad']/- [cdad']/a/[dd']/[_bg']/- | [bg']/[_bg']e'/ [=bd'] .[^C^A] | %62
 .[DGB].[^C^A]/[DFB]/- [DFB]/ [=CF=A] [_bg']/- | [bg']/[_bg']e'/ [=bd'] .[^C^A] | %64
 .[DGB].[^C^A]/[=CF=A]/- [CFA]/ [DFAd] b/ | a/b/4a/4g/[egbe']/- [egbe']/[dgbd']b/ | %66
 [dd']2 a/[c_egc']^a/ | [Bdgb]/^a/[B^dgb]/[B^cegb]/- [Bcegb]/b/[A=c=a]/b/ |1 %68
 [GBdg]/[dad']/ z/ [eg^c'e']/ z/ [a=c'd'f']/ z/ [_bg']/ :|2 %69
 [GBdg]/!^![^A^ce]!^![Ace]!^![GAce] z/ ||[K:C] z/ [Bdg]d/ [Bf]/d/B/G/ | %71
 c/(3e/4^c/4^B/4[^^G^A]/c/ [GA]/[=GAc]G/ | B/[Bdg]d/ [Bf]/d/B/G/ | %73
 c/(3e/4^c/4^B/4[^^G^A]/c/ [GA]/[=GAc]G/ | B/[GBdg]d/ [Bf]/d/B/G/ | %75
 c/(3e/4^c/4^B/4[^^G^A]/c/ [GA]/[=GAc]g/ | .[GBd]/.[GBdg]e/ [Bd]/e/[Acd]/d/ | %77
 [GB]/^^G/^A/[A^ceg]/- [Aceg]/=G/ z/ =A/ | ^A/[Bdg]d/ [Bf]/d/B/G/ | %79
 c/(3e/4^c/4^B/4[^^G^A]/c/ [GA]/[=GAc]G/- | G/[Bdg]d/ [Bf]/d/B/G/ | %81
 c/g/[G_Be]/g/4e/4 [^FA^d]/e/[=F_A=d]/c/ | [EG^c]/[_Bce_b]e/ [Aca]/[GAcg]e/ | %83
 [GAdg]/c/^c/[GAdg]/- [GAdg]/[_Af]^d/ | [Gce]/^d/[^Gce]/[^FAce]/- [FAce]/[=F=GB=d]e/ | %85
 [EGc] z !^![G_Bce]/.[eg_bc'e'][dfad']/ | z/ [cfc']/a/[dd']/- [dd']/[dc']/^d/=a/ | %87
 [eg] z/ !^![G,_B,CE] [eg_bc'e']/ z/ a/ | [dfd']/[cfc']/a/[dd']/- [dd']/[dc']/^d/a/ | %89
 [eg] z/ !^![G,_B,CE] .[eg_bc'e']a/ | [dfd']/[cfc']/a/[dd']/- [dd']/[dc']/^d/a/ | %91
 [eg] z/ !^![^F,A,CE] [Beb] z/ | [B^db]/[A^ca]/^F/[Bdb]/- [Bdb]/[Aa]/[FBd]/[Aa]/ | %93
 [GBeg] z/ !^![G,_B,CE] .[egc'e']a/ | [dfd']/[cfc']/a/[dd']/- [dd']/[dc']/^d/a/ | %95
 [eg] z/ !^![G,_B,CE] .[ege']a/ | [dfd']/[cc']/a/[dd']/- [dd']/[dc']/^d/a/ | %97
 [eg] z/ !^![E,G,_B,D] .[_Bdeg_b]e/ | [A^ca]/^B/c/d/ e/[G_Bcg]e/ | %99
 [Adg]/d/e/[GAdg]/ z/ [F_Acf]^d/ | [EGce]/^d/[E^Gce]/[E^FAce]/- [EFAce]/[D=F=GB=d]e/ | %101
 [EGc].[G,^A,^CE]/ z/ .[G,A,CE]/ z/ .[G,A,CE]/ z/ | z/ [GBdg]d/ [FGBf]/d/B/G/ | %103
 c.[G,^A,^CE]/ z/ .[G,A,CE]/ z/ .[G,A,CE]/ z/ | z/ [GBdg]d/ [FGBf]/d/B/G/ | %105
 c.[G,^A,^CE]/ z/ .[G,A,CE]/ z/ .[G,A,CE]/ z/ | z/ [GBdg]d/ [FGBf]/d/B/G/ | %107
 c/[^ce]/G/A/ ^A/[cg]e/ | [Bd]/[Ae]/[^A^c]/e/ [Bd]/d/[=A=c]/[GB]/- | %109
 [GB]/ z/ .[G,^A,^CE]/ z/ .[G,A,CE]/ z/ .[G,A,CE]/ z/ | z/ [GBdg]d/ [FGBf]/d/B/G/ | %111
 c.[G,^A,^CE]/ z/ .[G,A,CE]/ z/ .[G,A,CE]/ z/ | z/ [GBdg]d/ [FGBf]/d/B/G/ | %113
 c/.[G,_B,E].[^F,A,^D].[=F,_A,=D] z/ | [E,G,^C]/!^![_B^ce_b]e/ !^![Aca]/!^![GAceg]e/ | %115
 [GAdg]/c/^c/!^![GAdg]/- [GAdg]/!^![_A=cf]^d/ | [EGce]/^d/[E^Gce]/[E^FAce]/- [EFAce]/[D=F=GB=d]e/ | %117
 [EGc]/[egc'e']/ z/ [ee']/ z/ [egc'e']/ z/ [dfad']/- | [dfad']/[cc']/a/[dd']/- [dd']/[dc']/^d/a/ | %119
 [eg]/[egc'e']/ z/ [ee']/ z/ [egc'e']/ z/ a/ | [dfd']/[cfc']/a/[dad']/- [dad']/[dc']/^d/a/ | %121
 [eg]/[egc'e']/ z/ [ee']/ z/ [egc'e']/ z/ a/ | [dfd']/[cfc']/a/[dd']/- [dd']/[dc']/^d/a/ | %123
 [eg]/[da]/4^d/4e/a/ g/a/4g/4[_Bce]/=b/ | [Beg]/b/[Beg]/b/ [B^d]/[^FAd][GBeg]/- | %125
 [GBeg]/[egc'e']/ z/ [ee']/ z/ [egc'e']/ z/ a/ | [dfd']/[cfc']/a/[dad']/- [dad']/[dc']/^d/a/ | %127
 [eg]/[egc'e']/ z/ [ee']/ z/ [egc'e']/ z/ a/ | [dfd']/[cfc']/a/[dad']/- [dad']/[dc']/^d/a/ | %129
 [eg]/g/[G_Be]/g/4e/4 [^FA^d]/e/[=F_A=d]/e/ | [EG^c]/[_Bceg_b]e/ [Aca]/[GBeg]e/ | %131
 [GAdg]/c/^c/[GAdg]/- [GAdg]/[_A=cf]^d/ | [EGce]/^d/[E^Gce]/[E^FAce]/ z/ [D=F=GB=d]e/ | %133
 [EGc]/[^A^ce]/ z/ [Ace]/ z/ [Ace]/ z/ c/ | G/[Bf]d/ [GBf]/d/B/d/ | %135
 [Gce]/A/^A/[GA^ceg]/ z/ [GAceg][=Ag]/ | ^A/[Bdg]d/ [GBf]/d/B/G/ | %137
 c/(3e/4^c/4^B/4[^^G^A]/c/ [GA]/[=GAc]G/ | B/[GBdg]d/ [Bf]/d/B/G/ | c/g/[G^A^ce]/^^G/ A/[=Gceg]e/ | %140
 [GBd]/e/[GBd]/e/ [^FAd]/(3e/4d/4c/4[FA]/d/ | [GB]/^^G/^A/[=GA^ceg]/- [GAceg]/[GAceg]=A/ | %142
 ^A/[Bdg]d/ [GBf]/d/B/G/ | c/(3e/4^c/4^B/4[^^G^A]/c/ [GA]/[=GAc]G/ | B/[Bdg]d/ [Bf]/d/B/G/ | %145
 c/g/[G_Be]/g/4e/4 [^FA^d]/e/[=F_A=d]/c/ | [EG^c]/[_Bceg_b] z/ [Aca]/[Gceg]e/ | %147
 [Adg]/c/^c/[GAdg]/- [GAdg]/[_A=cf]^d/ | [Gce]/^d/[^Ge]/[^FAce]/- [FAce]/e/[=F=GB=d]/e/ | %149
 [EGc] z{a^ab} [cegc']/ z _e''/ | [g'f'']/_d''/_e''/[_d'c'']/ g'/_b'/[gd'f']/_e'/ | %151
 f'/c'/_e'/[c_b]/ z/ _a/[_Gf]/^d/ | [Gce]/=d/[Gce]/[FBdg]/- [FBdg]/e/[GBd]/e/ | %153
 [EGc]/4 z/4 [B,DFA]G/ [CEc]3/2 |] %154
V:2
 z/ | [gb]/ z/ [gb]/[eg]/- [eg]/ z/ [eg]/ z/ | [ce]/ z/ [ce]/[A^c]/- [Ac]/ z/ [Ac]/ z/ | %3
 [DA]/[DFA] z/ G^G | [DFAc][K:bass]{F,G,^G,}A, [D,A,F] z |"^leggiero" z B, z2 | z2 z2 | %7
"_sim." z2 z2 | z z z z | z B, z2 | z2 x2 | [F,,D,A,]!wedge![B,DF] [^D,,B,,F,]!wedge![A,B,^D] | %12
 [E,,^G,][A,,=G,] [D,,A,,F,]!wedge![F,A,CD] | z B, z2 | z2 z z | z z z z | z z z z | %17
 [E,,^G,]!wedge![G,B,DE] B,,,!wedge![G,CE]/B,/ | x2 G,A, | B, z B,A, | %20
 [G,,G,]/D,,/D,/E,/ E,,/F,,/F,/G,,/- | z2 z2 | z2 z z | z z z z | z z z z | %25
 [G,,G,]!wedge![B,DG] [F,,F,]!wedge![A,C_EF] | [E,,E,]!wedge![B,EG] [_B,,_B,]!wedge![G,B,DE] | %27
 !wedge![A,,A,][^G,,^G,] !wedge![G,DF]!wedge![G,,G,] | %28
 [=G,,=G,]!wedge![G,A,^CE] [F,,F,]!wedge![F,A,=CD] | z2 z2 | z2 z z | z z z z | z z z z | %33
 [E,,E,]!wedge![^G,B,DE] [^G,,G,]!wedge![G,B,DE] | [A,,A,].[A,,,A,,] [B,,,B,,][C,,C,] | %35
 [D,,D,]!wedge![G,B,D] [E,,E,][F,,F,] | [G,,G,][D,,D,] !wedge![D,F,A,C][^A,,,^A,,] | %37
 !tenuto![B,,,B,,]!wedge![G,B,D] !tenuto![C,,C,]!wedge![A,CE] | %38
 !tenuto![B,,,B,,]!wedge![G,B,D] !tenuto![C,,C,]!wedge![A,CE] | %39
 !tenuto![B,,,B,,]!tenuto![C,,C,] !wedge![A,CE]!tenuto![C,,C,] | %40
 !tenuto![^C,,^C,]!wedge![G,_B,^CE] !tenuto![D,,D,]!wedge![F,A,=C] | %41
 [B,,,B,,]!wedge![G,B,D] [C,,C,]!wedge![A,CE] | [B,,,B,,][D,,D,] !wedge![G,B,E][B,,,B,,] | %43
 [^C,,^C,][F,,,F,,] [^G,,,^G,,][^A,,,^A,,] | [B,,,B,,][_B,,,_B,,] [A,,,A,,]!wedge![F,A,CD] | %45
 [B,,,B,,]!wedge![G,B,D] [C,,C,]!wedge![A,CE] | [B,,,B,,]!wedge![G,B,D] [C,,C,]!wedge![A,CE] | %47
 .[B,,,B,,].[C,,C,] .[D,,D,][^C,,^C,] | !wedge![A,^CE].[^C,,^C,] [=C,,=C,]!wedge![F,A,=CD] | %49
 .[B,,,B,,].[G,,,G,,] .[A,,,A,,].[B,,,B,,] | .[C,,C,].[A,,,A,,] [C,,C,][^C,,^C,] | %51
 [D,,D,][^D,,^D,] [E,,E,][F,,F,] | [G,,G,]!tenuto![D,,D,] !tenuto![F,A,CD].[F,,F,] |: %53
 [G,,G,]!wedge![G,B,D] .[D,,D,]/.[^D,,^D,]/ z/ .[E,,E,]/ | %54
 z/ .[^E,,^E,]/ z/ [F,,F,]/- [F,,F,]!wedge![D,F,A,] | %55
 [G,,G,]!wedge![G,B,D] .[D,,D,]/.[^D,,^D,]/ z/ .[E,,E,]/ | %56
 z/ .[^E,,^E,]/ z/ [F,,F,]/- [F,,F,]!wedge![D,F,A,C] | %57
 [G,,G,]!wedge![G,B,D] .[D,,D,]/.[C,,C,]/ z/ [^C,,^C,]/- | %58
 [C,,C,]/.[F,,,F,,]/ z/ .[B,,,B,,]/ z/ [^B,,,^B,,] z/ | %59
 [^C,,^C,]!wedge![G,^A,^CE] F,,,!wedge![G,A,CE] | [B,,B,][_B,,_B,] [A,,A,]!wedge![F,A,CD] | %61
 [G,,G,]!wedge![G,B,D] .[D,,D,]/.[^D,,^D,]/ z/ .[E,,E,]/ | %62
 z/ .[^E,,^E,]/ z/ [F,,F,]/- [F,,F,]!wedge![D,F,A,] | %63
 [G,,G,]!wedge![G,B,D] .[D,,D,]/.[^D,,^D,]/ z/ .[E,,E,]/ | %64
 z/ .[^E,,^E,]/ z/ .[F,,F,]/ z !wedge![D,F,A,] | [G,,G,]!wedge![G,D] [=F,,=F,]!wedge![G,B,D=F] | %66
 .[E,,E,][_E,,_E,] !wedge![G,A,C_E][E,,E,] | .[D,,D,].[^D,,^D,] .[E,,E,].[F,,F,] |1 %68
 .[G,,G,].[D,,D,] [E,,E,][F,,F,] :|2 [G,,G,]/ z/ [^C,,^C,] [^A,^CE]/C,,/C,/D,,/- || %70
[K:C] [D,,D,]!wedge![G,B,DF] G,,,!wedge![G,B,DF] | C,,!wedge![E,G,^C] ^C,,!wedge![E,G,^A,C] | %72
 D,,!wedge![G,B,DF] G,,,!wedge![G,B,DF] | C,,!wedge![E,G,^C] ^C,,!wedge![E,G,^A,C] | %74
 D,,!wedge![G,B,DF] G,,,!wedge![G,B,DF] | [C,,C,][^C,,^C,] !wedge![E,G,^A,^C][C,,C,] | %76
 [D,,D,]!wedge![G,B,D] C,,!wedge![^F,A,CD] | B,,,!wedge![G,B,DF] ^C,,!wedge![E,G,^A,^C] | %78
 D,,!wedge![G,B,DF] G,,,!wedge![G,B,DF] | C,,!wedge![E,G,^C] ^C,,!wedge![E,G,^A,C] | %80
 [D,,D,]!wedge![G,B,DF] G,,,!wedge![G,B,DF] | [C,,C,][C,C] [B,,B,][_B,,_B,] | %82
 [A,,A,]/_B,/!wedge![^CEG] [G,,G,]!wedge![G,A,CE] | .[F,,F,].[D,,D,] .[F,,F,].[^F,,^F,] | %84
 .[G,,G,].[^G,,^G,] .[A,,A,].B, | [C,C]!^![G,,G,] !^![G,_B,CE][E,,E,] | %86
 [F,,F,]!wedge![A,F] [^F,,^F,]!wedge![_A,C^D^F] | [G,,G,]<!^![C,,C,]- [C,,C,][E,,E,] | %88
 [F,,F,]!wedge![A,CF] [^F,,^F,]!wedge![_A,C_E^F] | [G,,G,]<!^![C,,C,]- [C,,C,][E,,E,] | %90
 [F,,F,]!wedge![A,CF] [^F,,^F,]!wedge![_A,C_E^F] | [G,,G,]<!^![C,,C,]- [C,,C,][C,,C,] | %92
 .[B,,,B,,].[^C,,^C,] .[^D,,^D,].[B,,,B,,] | [E,,E,]<!^![C,,C,]- [C,,C,][C,,C,] | %94
 [F,,F,]!wedge![A,CF] [^F,,^F,]!wedge![_A,C_E^F] | [G,,G,]<!^![C,,C,]- [C,,C,][E,,E,] | %96
 [F,,F,]!wedge![A,CF] [^F,,^F,]!wedge![_A,C_E^F] | %97
 [G,,G,]<!ped!!^![_B,,,_B,,]-!ped-up! [B,,,B,,].[B,,,B,,] | %98
 .[A,,,A,,].[^A,,,^A,,] .[B,,,B,,].[^C,,^C,] | [D,,D,][F,A,D] [A,,A,][_A,,_A,C] | %100
 .[G,,G,][^G,,^G,] [A,,A,][B,,B,] | [C,C]/.[^C,,^C,]/ z/ [C,,C,]/ z/ [C,,C,]/ z | %102
 [D,,D,]!wedge![G,B,DF] G,,,!wedge![G,B,DF] | %103
 [C,,C,]/!ped![^C,,^C,]/ z/ [C,,C,]/!ped-up! z/ [C,,C,]/ z | %104
 [D,,D,]!wedge![G,B,DF] G,,,!wedge![G,B,DF] | %105
 [C,,C,]/!ped![^C,,^C,]/ z/ [C,,C,]/!ped-up! z/ [C,,C,]/ z | %106
 [D,,D,]!wedge![G,B,DF] G,,,!wedge![G,B,F] | .[C,,C,].[B,,,B,,] .[C,,C,].[^C,,^C,] | %108
 [D,,D,]!wedge![D,^F,A,C] [C,,C,]!wedge![D,F,A,C] | %109
 .[B,,,B,,]/!ped![^C,,^C,][C,,C,]/- [C,,C,]<!ped-up![C,,C,] | %110
 [D,,D,]!wedge![G,B,DF] G,,,!wedge![G,B,DF] | %111
 [C,,C,]/!ped!.[^C,,^C,]/ z/!ped-up! .[C,,C,]/ z/ .[C,,C,]/ z | %112
 [D,,D,]!wedge![G,B,DF] G,,,!wedge![G,B,DF] | [C,,C,]/.[C,,C,].[B,,,B,,].[_B,,,_B,,][A,,,A,,]/- | %114
!ped! [A,,,A,,]!ped-up!!wedge![_B,^CEG] [^C,,^C,]!wedge![G,A,CE] | %115
 [D,,D,][E,,E,] [F,,F,][^F,,^F,] | [G,,G,][^G,,^G,] [A,,A,][B,,B,] | %117
 [C,C]!^![G,,G,] !wedge![G,CE]!^![E,,E,] | [F,,F,]!wedge![A,CF] [^F,,^F,]!wedge![_A,C_E^F] | %119
 .[G,,G,]!wedge![G,CE] [E,,E,]!wedge![G,_B,CE] | [F,,F,]!wedge![A,CF] [^F,,^F,]!wedge![F,A,C^D] | %121
 [G,,G,]!wedge![G,_B,CE] B,/_B,,/!wedge![B,CEG] | [A,,A,]!wedge![A,CF] [^F,,^F,]!wedge![F,A,C^D] | %123
 [G,,G,]!wedge![G,_B,CE] [C,,C,]!wedge![G,B,CE]/B,,,/ | B,,/^C,,/^C,/^D,,/ ^D,/B,,,/B,,/ z/ | %125
 .[E,,E,]!wedge![CEG] .[C,,C,]!wedge![G,_B,CE] | .[F,,F,]!wedge![A,CF] [^F,,^F,]!wedge![F,A,C_E] | %127
 [G,,G,]!wedge![G,_B,CE] [E,,E,]!wedge![G,B,CE] | .[F,,F,]!wedge![A,CF] [^F,,^F,]!wedge![F,A,C_E] | %129
 !wedge![G,,G,]!wedge![C,C] !wedge![B,,B,]!wedge![_B,,_B,] | %130
 [A,,A,]!wedge![_B,^CEG] [G,,G,]!wedge![G,B,CE] | !wedge![F,,F,]!wedge![D,,D,] [F,,F,][^F,,^F,] | %132
 [G,,G,][^G,,^G,] [A,,A,][B,,B,] | [C,C]^C,, [G,^A,^CE]C,, | %134
 D,,!wedge![G,B,DF] G,,,!wedge![G,B,DF] | C,,!wedge![G,_B,CE] ^C,,!wedge![G,^A,^CE] | %136
 D,,!wedge![G,B,DF] G,,,!wedge![G,B,DF] | C,,!wedge![G,_B,E] ^C,,!wedge![G,^A,^CE] | %138
 D,,!wedge![G,B,DF] G,,,!wedge![B,DF] | !wedge![C,,C,].[^C,,^C,] !wedge![G,^A,^CE].[C,,C,] | %140
 .[D,,D,]!wedge![G,B,D] .[C,,C,]!wedge![^F,A,C] | %141
 [B,,,B,,]!wedge![G,B,DF]!ped! [^C,,^C,]!ped-up!!wedge![G,^A,^CE] | %142
 D,,!wedge![G,B,DF] G,,,!wedge![G,B,DF] | C,,!wedge![G,_B,E] ^C,,!wedge![G,^A,^CE] | %144
 D,,!wedge![G,B,DF] G,,,!wedge![G,B,DF] | [C,,C,][C,C] [B,,B,][_B,,_B,] | %146
 .[A,,A,]!wedge![_B,^CEG]/ z/ [G,,G,]!wedge![G,CE] | .[F,,F,].[D,,D,] [F,,F,][^F,,^F,] | %148
 [G,,G,][^G,,^G,] [A,,A,][B,,B,] | [C,C]/C,,/ z/ C,,/ [G,,E,]/ z _E,,,/ | %150
 _E,,G,,, G,,/_B,,,/_B,,/E,,/ | _E,_A,, _A,/C,/C/G,,/- | %152
 [G,,G,]!wedge![G,CE]/G,,/- [G,,F,B,]!wedge![G,B,DF]/C,,/ | %153
 [G,,E,]/4 z/4 G,,/-[G,,F,]/C,,/- [C,,G,,E,]3/2 |] %154
V:3
 x/ | x4 | x4 | x2 [DB]/ x/ [DB]/ x/ | x[K:bass] x3 | %5
 [G,,D,B,]!wedge![DG] [F,,_E,A,]!wedge![C_EF] | [E,,B,,G,]!wedge![B,EG] [D,,=F,]!wedge![G,B,=F] | %7
 [C,,E,]!wedge![G,CE] [B,,,D,]!wedge![G,B,D] | [A,,,C,]!wedge![F,A,CD] [G,,,B,,]!wedge![G,B,D] | %9
 [G,,D,B,]!wedge![B,DG] [F,,_E,A,]!wedge![C_EF] | %10
 [E,,B,,G,]!wedge![B,EG] !wedge![G,,D,_B,]!wedge![B,DG] | x4 | x4 | %13
 [G,,D,B,]!wedge![DG] [F,,_E,A,]!wedge![C_EF] | [E,,B,,G,]!wedge![B,EG] [D,,=F,]!wedge![G,B,=F] | %15
 [C,,E,]!wedge![G,CE] [B,,,D,]!wedge![G,B,D] | [A,,,C,]!wedge![F,A,CD] [G,,,B,,][=F,,A,] | x4 | %18
 [A,,E,D]!wedge![CE] [E,,E,][_E,,_E,] | [D,,D,][^D,,^D,] [E,,E,][F,,F,] | x4 | %21
 [G,,G,]!wedge![B,DG] [F,,F,]!wedge![A,C_EF] | [E,,E,]!wedge![G,B,E] [D,,D,]!wedge![G,B,D] | %23
 [C,,C,]!wedge![A,CE] [B,,,B,,]!wedge![G,B,D] | [A,,,A,,]!wedge![F,A,CD] [G,,,G,,]!wedge![G,B,D] | %25
 x4 | x4 | x4 | x4 | [G,,G,]!wedge![B,DG] [F,,F,]!wedge![A,C_EF] | %30
 [E,,E,]!wedge![G,B,E] [D,,D,]!wedge![G,B,D] | [C,,C,]!wedge![A,CE] [B,,,B,,]!wedge![G,B,D] | %32
 [A,,,A,,]!wedge![F,A,CD] [G,,,G,,][=F,,=F,] | x4 | x4 | x4 | x4 | x4 | x4 | x4 | x4 | x4 | x4 | %43
 x4 | x4 | x4 | x4 | x4 | x4 | x4 | x4 | x4 | x4 |: x4 | x4 | x4 | x4 | x4 | x4 | x4 | x4 | x4 | %62
 x4 | x4 | x4 | x4 | x4 | x4 |1 x4 :|2 x4 ||[K:C] x4 | x4 | x4 | x4 | x4 | x4 | x4 | x4 | x4 | x4 | %80
 x4 | x4 | x4 | x4 | x4 | x4 | x4 | x4 | x4 | x4 | x4 | x4 | x4 | x4 | x4 | x4 | x4 | x4 | x4 | %99
 x4 | x4 | x4 | x4 | x4 | x4 | x4 | x4 | x4 | x4 | x4 | x4 | x4 | x4 | x4 | x4 | x4 | x4 | x4 | %118
 x4 | x4 | x4 | x4 | x4 | x4 | x4 | x4 | x4 | x4 | x4 | x4 | x4 | x4 | x4 | x4 | x4 | x4 | x4 | %137
 x4 | x4 | x4 | x4 | x4 | x4 | x4 | x4 | x4 | x4 | x4 | x4 | x4 | x4 | x4 | x4 | x7/2 |] %154
V:4
 x/ | x4 | x4 | x4 | x4 | x4 | x4 | x4 | x4 | x4 | x4 | x4 | x4 | x4 | x4 | x4 | x4 | x4 | x4 | %19
 x4 | [B,DG]/A/[DB]/A/ D/[DAd]^a/ | x4 | x4 | x4 | x4 | x4 | x4 | x4 | x4 | x4 | x4 | x4 | x4 | %33
 x4 | .[EA]/G/.^G/A/ x2 | x4 | x[K:treble] x3 | x4 | x4 | x4 | x4 | x4 | x4 | x4 | x4 | x4 | x4 | %47
 x4 | x4 | x4 | x4 | x4 | x4 |: x4 | x4 | x4 | x4 | x4 | x4 | x4 | x4 | x4 | x4 | x4 | x4 | x4 | %66
 [eg]/=f/ x/ g/ x2 | x4 |1 x4 :|2 x4 ||[K:C] x4 | x4 | x4 | x4 | x4 | x4 | x4 | x4 | x4 | x4 | x4 | %81
 x4 | x4 | x4 | x4 | x4 | x4 | x4 | x4 | x4 | x4 | x4 | x4 | x4 | x4 | x4 | x4 | x4 | x4 | x4 | %100
 x4 | x4 | x4 | x4 | x4 | x4 | x4 | x4 | x4 | x4 | x4 | x4 | x4 | x4 | x4 | x4 | x4 | x4 | x4 | %119
 x4 | x4 | x4 | x4 | x4 | x4 | x4 | x4 | x4 | x4 | x4 | x4 | x4 | x4 | x4 | x4 | x4 | x4 | x4 | %138
 x4 | x4 | x4 | x4 | x4 | x4 | x4 | x4 | x4 | x4 | x4 | x4 | x4 | x4 | x4 | x7/2 |] %154

